X: 2904
T: Baroque Fiddle, The
R: reel
M: 4/4
K: Dmajor
F2 ED F2 A2|dcBd cBAG|F2 ED F2 A2|dABc dBAG|
F2 ED F2 A2|dcBd cBAG|F2 ED F2 A2|dABc defg||
afdf afdf|gece gece|fdBd fdBd|ecAc ecAc|
dBGB dBGB|FAdA FAdA|EAdA EAdA|EAcA EAcA||

